src/icon/file/account-info/icon_account-info_xl_white.svg

<svg width="36" height="36" viewBox="0 0 36 36" xmlns="http://www.w3.org/2000/svg"><g fill="none" fill-rule="evenodd"><path d="M0 0h36v36H0z"/><path d="M28.2 34.1H7.8c-1.5 0-2.8-1.3-2.8-2.8V3.8C5 2.3 6.3 1 7.8 1h15.3L31 8.9v22.4c0 1.6-1.3 2.8-2.8 2.8zM7.8 2C6.8 2 6 2.8 6 3.8v27.5c0 1 .8 1.8 1.8 1.8h20.4c1 0 1.8-.8 1.8-1.8v-22L22.6 2H7.8z" fill="#FFF"/><path d="M17.5 10c1.1 0 2 .9 2 2s-.9 2-2 2-2-.9-2-2 .9-2 2-2M16 17h3v9h-3z" fill="#FFF" opacity=".3"/></g></svg>

<?xml version="1.0" encoding="UTF-8"?>
<svg width="36px" height="36px" viewBox="0 0 36 36" version="1.1" xmlns="http://www.w3.org/2000/svg" xmlns:xlink="http://www.w3.org/1999/xlink">
    <!-- Generator: Sketch 49.1 (51147) - http://www.bohemiancoding.com/sketch -->
    <title>icon_account_info_white_xl</title>
    <desc>Created with Sketch.</desc>
    <defs></defs>
    <g id="set" stroke="none" stroke-width="1" fill="none" fill-rule="evenodd">
        <g id="cards" transform="translate(-128.000000, -230.000000)">
            <g id="icon_tool_account_info__xl__white" transform="translate(128.000000, 230.000000)">
                <g id="ungroup">
                    <rect id="Rectangle-path" x="0" y="0" width="36" height="36"></rect>
                    <path d="M28.2,34.1 L7.8,34.1 C6.3,34.1 5,32.8 5,31.3 L5,3.8 C5,2.3 6.3,1 7.8,1 L23.1,1 L31,8.9 L31,31.3 C31,32.9 29.7,34.1 28.2,34.1 L28.2,34.1 Z M7.8,2 C6.8,2 6,2.8 6,3.8 L6,31.3 C6,32.3 6.8,33.1 7.8,33.1 L28.2,33.1 C29.2,33.1 30,32.3 30,31.3 L30,9.3 L22.6,2 L7.8,2 L7.8,2 Z" id="Shape" fill="#FFFFFF"></path>
                    <path d="M17.5,10 C18.6,10 19.5,10.9 19.5,12 C19.5,13.1 18.6,14 17.5,14 C16.4,14 15.5,13.1 15.5,12 C15.5,10.9 16.4,10 17.5,10" id="Shape" fill="#FFFFFF" opacity="0.3"></path>
                    <rect id="Rectangle-path" fill="#FFFFFF" opacity="0.3" x="16" y="17" width="3" height="9"></rect>
                    <g id="Group" opacity="0.3"></g>
                </g>
            </g>
        </g>
    </g>
</svg>
